X:1

T:White Mountain Maid, The

M:3/4

L:1/8

R:Air

N:”Moderate”

S:O’Neill – Music of Ireland (1903), No. 491

Z:AK/Fiddler’s Companion

K:D

(DF/A/) | Bd e>d fe | d2B2 AF | E3 DEF | E2 D2D2 | D4 (3DFE | D2 DE FG |

A2A2 Bd | e2f2 dA | B2 AF ED | B,4 FE | D>C DE FG | A2A2 Bd | e2f2 dA |

BA F2ED | E4 (DF/A/) | Bd e>d fe | d2B2 (3AFD | E3 DEF | E2D2D2 | D4 ||

 

WHITE MOUNTAIN REEL. American, Reel. USA, New Hampshire. The tune is composed in French‑Canadian style. Bay 209, "The Gypsy Gyppo String Band" (1977. Learned from French‑Canadian style New Hampshire fiddler Larry Riendeau).

 

WHITE MOUNTAINS, THE. New England, Waltz. D Major. Standard tuning. One part. The title refers to the famous northern New Hampshire range of the Appalachians. McQuillen, Bob's Notebook, vol. 2; pg. 39.

 

WHITE MULE. Old‑Time, Breakdown. The tune is "Puncheon Floor [2]," considerably simplified, with a third part added. Victor Vi 21534 (78 RPM), Hoyt Ming and His Pep Steppers.

 

WHITE PETTICOAT, THE (An Cota-Beag Ban). AKA and see “Handy with the Stick.” Irish (originally), English; Double Jig. England, North‑West. E Minor. Standard tuning. AABB. One of the few tunes in O’Neill’s in aeolian minor (nearly all minor-sounding tunes are in dorian). The provenance of the tune is not known—many have remarked on its unusual nature in the context of the bulk of O’Niell’s collection, and the melody is only sourced to Francis O’Neill himself (a very loose source attribution, as O’Neill often put his name to tunes he learned from in the course of years of playing with Irish musicians from Chicago and other areas). “Handy with the Stick” is a related and possibly earlier tune. Knowles (Northern Frisk), 1988; No. 38. O'Neill (Krassen), 1976; pg. 74. O'Neill (Music of Ireland: 1850 Melodies), 1979; No. 773, pg. 144. Green Linnet SIF 1149, Joe Derrane – “Give Us Another.” Green Linnet SIF 1160, Patrick Street – “Cornerboys.” Shanchie 78002, “Solas.” Patty Furlong – “Traditional Irish Music on the Button Accordion” (1999).

